X:1
T:The Stranger of Galilee
T:The Stranger of Galilee
T:Leila Naylor Morris
T:Leila Naylor Morris, 1893
T:Public Domain Courtesy of the Cyber Hymnal™
T:Public Domain Courtesy of the Cyber Hymnal™
C:Leila Naylor Morris
Z:Public Domain
Z:Courtesy of the Cyber Hymnal™
%%score ( 1 2 ) ( 3 4 )
L:1/8
Q:1/4=90
M:6/8
K:F
V:1 treble 
V:2 treble 
V:3 bass 
V:4 bass 
V:1
 C | [FA]>[FA][FA] [CF][CG][FA] | [FB]2 [FB] [FA]2 [DG]/[DG]/ | [CF]>[CE][CF] [EG]2 [Ec] | %4
w: 1.~In|fan- cy I stood by the|shore, one day, Of the|beau- ti- ful mur- m’ring|
w: 2.~His|look of com- pas- sion, His|words of love, They shall|nev- er for- got- ten|
w: 3.~I|heard Him speak peace to the|ang- ry waves, Of that|tur- bu- lent, rag- ing|
w: 4.~Come|ye who are driv- en, and|temp- est tossed, And His|gra- cious sal- va- tion|
 [Fc]3- [Fc]2 [GB] | [FA]>[FA][FA] [CF][CG][FA] | [FB]2 [FB] [FA]2 [DG]/[DG]/ | %7
w: sea; * I|saw the great crowds as they|thronged the way Of the|
w: be; * When|sin sick and help- less He|saw me there, Th- is|
w: sea; * And|lo! at His word are the|wa- ters stilled, Th- is|
w: see; * He’ll|qui- et life’s storms with His|“Peace, be still!” Th- is|
 [CF]>[CE][CF] [FA]2 [FG] | [EG]3- [EG]2 [EG] | [GB][GB][GB] [^FA][FA][FA] | %10
w: Stran- ger of Gal- i-|lee; * I|saw how the man who was|
w: Stran- ger of Gal- i-|lee; * He|showed me His hand and His|
w: Stran- ger of Gal- i-|lee; * A|peace- ful, a qui- et, and|
w: Stran- ger of Gal- i-|lee; * He|bids me to go and the|
 [DG]2 [DG] D2 D/[DE]/ | [CF]>[CE][CF] [EG]2 [Ec] | c3- [Fc]2 [Fc] | [Fd][Fd][Fd] [Fc]FF | %14
w: blind from birth, In a|mo- ment was made to|see; The lame|* was made whole by the|
w: riv- en side, And He|whis- pered, “It was for|thee!” My bur-|* den fell off at the|
w: ho- ly calm, Now and|ev- er a- bides with|me; He hold-|* eth my life in His|
w: sto- ry tell— What He|ev- er to you will|be, If on-|* ly you let Him with|
 [EB]2 [EB] [FA]2 [FA]/[FA]/ | [Fc]F[GB] A2 [EG] | [CF]3- [CF]2 ||"^Refrain" [Ac]/[Ac]/ | %18
w: match- less skill Of the|Stran- ger of Gal- i-|lee. *||
w: pierc- èd feet Of the|Stran- ger from Gal- i-|lee. *|And I|
w: might- y hands, Th- is|Stran- ger of Gal- i-|lee. *|4.~Oh, my|
w: you a- bide, Th- is|Stran- ger of Gal- i-|lee. *||
 [Bc]>[Bd][Bc] [Fc]>[Fd][Fc] | [Ff]3 [Fd]2 [Fd] | [Fc]>[FA][FA] [CF][CE][CF] | G3- [EG]2 [Ec] | %22
w: ||||
w: felt I could love Him for-|ev- er, So|gra- cious and ten- der was|He! I claimed|
w: friend, won’t you love Him for-|ev- er? So|gra- cious and ten- der is|He! Ac- cept|
w: ||||
 [Fc]>[FB][FA] [_EA][EG][EA] | [DB]3 !fermata![Fd]2 [Fd] | [Fc]F[GB] A2 [EG] | [CF]3- [CF]2 |] %26
w: ||||
w: * Him that day as my|Sav- ior, This|Stran- ger of Gal- i-|lee. *|
w: * Him to- day as your|Sav- ior, This|Stran- ger of Gal- i-|lee. *|
w: ||||
V:2
 C | x6 | x6 | x6 | x6 | x6 | x6 | x6 | x6 | x6 | x3 D2 D/ x/ | x6 | F2 E x3 | x4 FF | x6 | %15
 x F (F D) x2 | x5 || x | x6 | x6 | x6 | C2 F x3 | x6 | x6 | x F (F D) x2 | x5 |] %26
V:3
 [F,A,] | [F,C]>[F,C][F,C] [F,A,][F,B,][F,C] | [B,,D]2 [B,,D] [F,C]2 [B,,B,]/[B,,B,]/ | %3
 [C,A,]>[C,G,][C,A,] [C,B,]2 [C,G,] | ([F,A,]3 [G,B,]2) [C,C] | %5
 [F,C]>[F,C][F,C] [F,A,][F,B,][F,C] | [B,,D]2 [B,,D] [F,C]2 [B,,B,]/[B,,B,]/ | %7
 [C,A,]>[C,G,][C,A,] [D,=B,]2 [G,,B,] | [C,C]3- [C,C]2 [C,C] | %9
 [G,,D][G,,D][G,,D] [A,,C][A,,C][A,,C] | [B,,B,]2 [B,,B,] [=B,,^G,]2 [B,,G,]/[B,,G,]/ | %11
 [C,A,]>[C,G,][C,A,] [C,B,]2 [C,G,] | ([F,A,]2 [G,B,] [A,C]2) [F,A,] | B,B,B, [A,C][A,C][A,C] | %14
 [G,C]2 [C,C] [F,C]2 [F,C]/[F,C]/ | [A,,C][D,A,][G,,D] [C,C]2 [C,B,] | [F,,F,A,]3- [F,,F,A,]2 || %17
 [F,F]/[F,F]/ | [G,E]>[G,E][G,E] [A,F]>[A,F][A,F] | [B,D]3 [B,,B,]2 [B,,B,] | %20
 [F,A,]>[F,C][F,C] [A,C][G,B,][F,A,] | ([E,C]2 [D,=B,] [C,_B,]2) [C,B,] | %22
 [F,A,]>[F,D][F,C] [F,C][F,C]F, | [B,,F,]3 !fermata![B,,B,]2 [=B,,^G,] | %24
 [C,A,][D,A,][G,,D] [C,C]2 [C,B,] | [F,,F,A,]3- [F,,F,A,]2 |] %26
V:4
 x | x6 | x6 | x6 | x6 | x6 | x6 | x6 | x6 | x6 | x6 | x6 | x6 | B,B,B, x3 | x6 | x6 | x5 || x | %18
 x6 | x6 | x6 | x6 | x5 F, | x6 | x6 | x5 |] %26

